X: 321
T: Jenny Dang the Weaver
O: trad Scotland
S: Arr. T. Traub 11-24-2002
R: Reel
K: D
M: 4/4
L: 1/8
|: "D"dA~A2 AFAB | "D"dA~A2 f2ef | "G"dB~B2 BABd | "A7"ABde faef :|
|: "D"d2fd "A7"efge | "D"defd "A7"e2cA | "D"d2fd "Em"efge | "A7"aA~A2 f2ef :|

%%sep 1 1 500

